!!!Xfilter: transpose -t P8
!!!OTL: 529. Heimath ueber Alles.
!!!COM: P. J. Lindpaintner
!!!ODT: 1829
!!!ARE: Europa, Mitteleuropa, Deutschland
!!!SCT: B0529
!!!TXL: @@DE
!!!YEM: Copyright 1995, estate of Helmut Schaffrath.
**kern	**text
*ICvox	*
*Ivox	*
*clefG2	*
*M4/4	*
*met(c)	*
*k[]	*
*C:	*
!LO:TX:a:t=Fröhlich.	!
{8gL	Was
8fJ	.
=1	=1
8eL	ſoll
8fJ	.
8gL	ich
8f#J	.
4g	in
4cc	der
=2	=2
4.ee	Frem-
8dd	-de
4cc	thun?
8r}	.
{8g	Hier
=3	=3
8gL	iſt
8aJ	.
8g/L	es
8ddJ	.
8g/L	ja
8ffJ	.
(8eeL	ſo
8ddJ)	.
=4	=4
2cc	ſchön!
4r}	.
{8gL	Der
8fJ	.
=5	=5
8eL	Win-
8fJ	.
8gL	-ter
8f#J	.
4g	ſtürmt
4cc	und
=6	=6
4.ee	brau-
8dd	-ſet
4cc	nun,
8r}	.
{8ee	ver-
=7	=7
(8ddL	-ſchneit
8aJ)	.
(8ccL	ſind
8f#J)	.
(8aL	Thal
8dJ)	.
(8bL	und
8aJ)	.
=8	=8
2g	Höh'n:
4r}	.
{4g	und
=9	=9
8aL	hier
8gJ	.
8f#L	iſt
8gJ	.
8aL	es
8bJ	.
8ccL	ſo
8ddJ	.
=10	=10
8eeL	ſchön,
8gJ	.
8ccL	ſo
8eJ	.
4g	ſchön!
8r}	.
{8g	La
=11	=11
!LO:TX:a:t=Jodeln.	!
(8ffL	la
8bJ)	.
4.dd	la
8gL	la
8b	la
8ddJ	la
=12	=12
(8eeL	la
8gJ)	.
4.cc}	la,
{8gL	la
8cc	la
8eeJ	la
=13	=13
(8aaL	la
8gg)	.
(8ff	la
8bJ)	.
4dd	la
(8.ffL	ſo
16eeJ)	.
=14	=14
2cc	ſchön.
4r}	.
==	==
!!!AGN: Wander -, Heimat - Lied
!!!GTL: Wanderlieder
!!!ONB: ESAC (Essen Associative Code) Database: BOEHME
!!!AMT: simple quadruple
!!!AIN: vox
!!!EED: Helmut Schaffrath
!!!EEV: 1.0
!!P. J. Lindpaintner. 1829.
!!@@COMMENT:"Gedicht von Joh. Valentin Adrian ʒuerſt im Morgenblatte 1823 Nr. 44, S. 173. Unter-
!!ʒeichnet A (ſ. Hoffmann, volksthüml. Lieder S. 197). Melodie von Lindpaintner op. 71 (1829),
!!für Solo mit Klavierbegl. - Bei Silcher f. Männerſtimmen VJJ. Heft Nr. 9. - Derſelbe Tert
!!mit Ʒuſatʒſtrophe noch um 1880 mündlich im Elfaß gehört (ſ. Mündel, Elſ. VL. Nr. 204)."
!!@@END:
!!!Text: J. V. Adrian
!!!URL-scan: https://archive.org/details/BoehmeVtLieder1895/page/n419/mode/2up
!!!ENC: Anna Maria Matuszewska
!!!EEV: 2024/11/07
*-	*-
